X:100
%%etbk:tnset id:350,pos:2,rep:3x,ant:
%%etbk:wsite http://www.thesession.org/tunes/display/370
%%etbk:video src:ytube,cde:9aRseSLEzgY,desc:
%%etbk:annot v1: Tune starts at 3:18
%%etbk:color #c8f5f5
%%etbk:pldat 2016-09-13T17:20,2016-09-10T14:33,2016-09-09T18:18,2016-07-31T17:15,2016-07-19T21:13,2016-07-09T14:05,2016-06-01T17:59,2016-05-31T18:39,2016-05-26T18:08,2015-12-23T17:57,2015-11-25T15:38,2015-03-04T16:47,2015-01-20T17:57,2014-12-27T15:09,2014-09-15T18:42,2014-09-14T12:21,2014-09-13T13:37,2014-09-11T18:23,2014-09-10T17:29,2014-05-14T17:38,2014-05-07T17:10,2014-05-05T18:49,2014-04-12T15:19,2014-02-08T15:11,2014-01-03T16:34,2013-12-07T18:16,2013-11-26T15:55,2013-11-06T16:35,2013-09-17T10:44
T:Jenny's Welcome To Charlie
Z: gian marco pietrasanta
Z: Piano Box Version by Martin Fleischmann
H: Created 2013-02-19 /  Last Modified 2016-07-31
M:4/4
L:1/8
S:Paddy Glackin & Paddy Keenan - doublin
S:Martin Hayes (see http://www.youtube.com/watch?v=9aRseSLEzgY)
R:reel
K:Ddor
|: "dm"!1!D3!5!c !4!A!3!G!2!E!1!D | "am"!1!E!3!c!3!cc !4!d!3!ccc | "dm"!1!D3!5!c !4!AGE!1!D | "am"!2!E!3!G!5!c!2!E !2!E!1!D!2!C!4!E |
|"dm" !1!D!2!E!1!D!5!c !4!AGE!1!D | "am"!1!E!3!c!3!cc !4!d2!3!cd | "dm"!5!ecd!3!c !2!A!1!G!2!E!4!G |1"am" !4!G!2!E!5!c!2!E !2!EDC!4!E:|2 "am"!4!G!2!E!5!cE "dm"!2!E!1!DD2|
|: "dm"!5!f3f !4!efed | "am"!2!c!1!A!2!A!1!A !4!c!2!A!1!G!4!e | "dm"!5!fedf "am"!4!e!1!A!2!c!3!d | !2!e!5!aag "dm"!2!e!1!dd2 |
| "dm"!5!f3f !4!efed | "am"!2!c!1!A !3!(3A!2!A!1!A !1!G!2!A!3!c!4!d | "dm"!5!ecd!3!c !2!A!1!G!2!E!4!G | "am"!4!G!2!E!5!c!2!E "am"!2!E!1!DD2:|
|: "dm"!5!a3a !5!age^f | "am"!4!(g2g)a ge!1!d!4!g | "dm"!1!e!3!aag !3!aaag | !1!e!3!aag !1!e!2!g!1!d!2!g |
| "dm"!3!a3a age^f | "am"!4!g2ga !4!ge!1!d!2!B | !1!G!2!A!3!c!4!d !5!ecd!3!c |1!2!AG!4!c!1!G AGG2:|2!2!AG!4!cG AGG!2!A|
|: "dm"!5!d3!3!d !3!defc | "am"!1!A!2!ccc !2!c!1!A!2!G!1!A | "dm"!3![d4A] !3!ddc!3!d | "am"!2!e!5!aag "dm"!2!e!1!d!3!d2 |
| "dm"!3!d2ce !3!d!2!c!1!A!3!B| "am"!4!cBcd !4!c!2!A!1!G!2!E | "dm"!1!DEF!4!G !2!A!5!ddc |1 "am"!2!AGcG !2!AGGA:|2"am"!2!AA!1!G!2!E !2!E!1!D!2!C!4!E ||


